X: 02078
T: McQUILLEN'S MARCH
C: Bob McQuillen Nov'74
B: Bob's Note Book 1&2 #78
R: march
Z: 2019 John Chambers <jc:trillian.mit.edu>
M: C
L: 1/4
K: G
D \
| G3A | B3d | g>g fe | d3 d | g>g fe | dB GB | Ad e^c | dc BA |
| G3A | B3d | g>g fe | d3 d | g>g fe | dB Gc | B2 A2 | G2- G ||
|| D \
| B>c BA | G2 D2 | EG FE | D3 D | B>c BA | G2 B2 | AG FG | A3 D |
| B>c BA | G2 D2 | EG FA | G3 G | G>G FE | DG/B/ dc | B2 A2 | G2- G |]
%%begintext align
%%endtext

%%sep 1 1 500

%%sep 1 1 500

